X:1
T:based on: sample jig-like melody
C:Trad like.
M:6/8
K:D
Q:6/8=70
d1B1f1f3|g1c1g1b1b1b1|A2e1f3|a2B1d3|a1B1d1A1b1d1|e1c1A1e1f1e1|d1e1b1B1e1b1|A2e1A3|